src/assets/duotone/PlayCircle.svg

<svg width="24" height="24" viewBox="0 0 24 24"  xmlns="http://www.w3.org/2000/svg">
<path opacity="0.4" d="M11.9702 22C17.4931 22 21.9702 17.5228 21.9702 12C21.9702 6.47715 17.4931 2 11.9702 2C6.44737 2 1.97021 6.47715 1.97021 12C1.97021 17.5228 6.44737 22 11.9702 22Z" />
<path d="M14.9699 10.2301L12.0699 8.56012C11.3499 8.14012 10.4799 8.14012 9.75986 8.56012C9.03986 8.98012 8.60986 9.72012 8.60986 10.5601V13.9101C8.60986 14.7401 9.03986 15.4901 9.75986 15.9101C10.1199 16.1201 10.5199 16.2201 10.9099 16.2201C11.3099 16.2201 11.6999 16.1201 12.0599 15.9101L14.9599 14.2401C15.6799 13.8201 16.1099 13.0801 16.1099 12.2401C16.1299 11.4001 15.6999 10.6501 14.9699 10.2301Z" />
</svg>

<?xml version="1.0" encoding="UTF-8"?>
<svg width="24" height="24" viewBox="0 0 24 24" xmlns="http://www.w3.org/2000/svg">
 <path d="m11.97 22c5.5229 0 10-4.4772 10-10 0-5.5228-4.4771-10-10-10-5.5228 0-10 4.4772-10 10 0 5.5228 4.4772 10 10 10z" opacity=".4"/>
 <path d="m14.97 10.23-2.9-1.67c-0.72-0.42-1.59-0.42-2.31 0-0.72 0.42-1.15 1.16-1.15 2v3.35c0 0.83 0.43 1.58 1.15 2 0.36004 0.21 0.76004 0.31 1.15 0.31 0.4 0 0.79-0.1 1.15-0.31l2.9-1.67c0.72-0.42 1.15-1.16 1.15-2 0.02-0.84-0.41-1.59-1.14-2.01z"/>
</svg>
